resources/svg/stakeholder.svg

<svg xmlns="http://www.w3.org/2000/svg" viewBox="0 0 24 24" fill="currentColor"><path fill="none" stroke="currentColor" stroke-width="2" d="M14,9 L18.5,11 L23,9 L23,4 L18.5,2 L14,4 L14,9 Z M7,7 C4.791,7 3,8.791 3,11 C3,13.209 4.791,15 7,15 C9.209,15 11,13.209 11,11 C11,8.791 9.209,7 7,7 L7,7 Z M1,23 L1,21 C1,17 3.5,15 7,15 C10.5,15 13,17 13,21 L13,23 L1,23 Z M14,4 L18.5,6 L23,4 M18.5,6 L18.5,11 L18.5,6 Z"/></svg>

<svg viewBox="0 0 24 24"><path fill="none" stroke="currentColor" stroke-width="2" d="M14 9l4.5 2L23 9V4l-4.5-2L14 4v5zM7 7a4 4 0 1 0 0 8a4 4 0 0 0 0-8h0zM1 23v-2c0-4 2.5-6 6-6s6 2 6 6v2H1zM14 4l4.5 2L23 4m-4.5 2v5v-5z"/></svg>
